build/img/icons/money.svg

<svg width="26" height="26" viewBox="0 0 26 26" fill="none" xmlns="http://www.w3.org/2000/svg">
<path d="M25.4874 13.1365C25.0828 12.6148 24.5027 12.285 23.8495 12.2054C23.2109 12.1225 22.5723 12.3045 22.0701 12.6993L16.2804 17.1891C15.7214 17.6311 15.0178 17.8748 14.2996 17.8748H12.9054C13.9632 16.8414 14.6246 15.4049 14.6246 13.8124C14.6246 13.3639 14.2606 13 13.8121 13H4.87487V12.1875C4.87487 11.739 4.51088 11.375 4.06239 11.375H0.812478C0.36399 11.375 0 11.739 0 12.1875V23.5622C0 24.0107 0.36399 24.3746 0.812478 24.3746H4.06239C4.51088 24.3746 4.87487 24.0107 4.87487 23.5622V22.7497H15.6971C16.5827 22.7497 17.4618 22.4475 18.1768 21.8966L25.0487 16.5521C25.5703 16.1491 25.9018 15.569 25.9814 14.9158C26.061 14.2707 25.8823 13.6369 25.4874 13.1365ZM3.24991 22.7497H1.62496V13H3.24991V22.7497ZM24.3695 14.7175C24.3418 14.9353 24.2313 15.1303 24.0542 15.2668L17.1839 20.6112C16.7549 20.9427 16.2252 21.1247 15.6971 21.1247H4.87487V14.6249H12.9184C12.5414 16.4774 10.8986 17.8748 8.93725 17.8748C8.48877 17.8748 8.12478 18.2388 8.12478 18.6873C8.12478 19.1358 8.48877 19.4998 8.93725 19.4998H14.2996C15.3818 19.4998 16.4429 19.1309 17.2847 18.4679L23.0744 13.9782C23.2369 13.8498 23.4351 13.7864 23.6529 13.8173C23.8706 13.8449 24.0672 13.9554 24.207 14.1374C24.337 14.3015 24.3938 14.5079 24.3695 14.7175Z" fill="#201D54"/>
<path d="M22.7494 1.62549H4.87486C3.97789 1.62549 3.24991 2.35509 3.24991 3.25044V8.93779C3.24991 9.38627 3.6139 9.75027 4.06239 9.75027C4.51087 9.75027 4.87486 9.38627 4.87486 8.93779V6.41911C6.46407 6.09412 7.71854 4.83965 8.0419 3.25044H19.5807C19.9057 4.83965 21.1602 6.09412 22.7494 6.41748V10.5627C22.7494 11.0112 23.1134 11.3752 23.5619 11.3752C24.0103 11.3752 24.3743 11.0112 24.3743 10.5627V3.25044C24.3743 2.35509 23.6464 1.62549 22.7494 1.62549ZM4.87486 4.7259V3.25044H6.35032C6.10496 3.93942 5.56385 4.48054 4.87486 4.7259ZM22.7494 4.7259C22.0604 4.48054 21.5193 3.93942 21.2739 3.25044H22.7494V4.7259Z" fill="#201D54"/>
<path d="M13.8121 6.5C12.4682 6.5 11.3746 7.59359 11.3746 8.93743C11.3746 10.2813 12.4682 11.3749 13.8121 11.3749C15.1559 11.3749 16.2495 10.2813 16.2495 8.93743C16.2495 7.59359 15.1559 6.5 13.8121 6.5ZM13.8121 9.74991C13.3652 9.74991 12.9996 9.38592 12.9996 8.93743C12.9996 8.48894 13.3652 8.12495 13.8121 8.12495C14.2589 8.12495 14.6245 8.48894 14.6245 8.93743C14.6245 9.38592 14.2589 9.74991 13.8121 9.74991Z" fill="#201D54"/>
</svg>

<svg width="26" height="26" fill="none" xmlns="http://www.w3.org/2000/svg"><path d="M25.487 13.136a2.428 2.428 0 00-1.637-.93 2.381 2.381 0 00-1.78.493l-5.79 4.49a3.206 3.206 0 01-1.98.686h-1.395a5.663 5.663 0 001.72-4.063.813.813 0 00-.813-.812H4.875v-.813a.813.813 0 00-.813-.812H.812a.813.813 0 00-.812.813v11.374c0 .449.364.813.812.813h3.25a.813.813 0 00.813-.813v-.812h10.822c.886 0 1.765-.302 2.48-.853l6.872-5.345c.521-.403.853-.983.932-1.636a2.384 2.384 0 00-.494-1.78zM3.25 22.75H1.625V13H3.25v9.75zm21.12-8.033a.818.818 0 01-.316.55l-6.87 5.344a2.45 2.45 0 01-1.487.514H4.875v-6.5h8.043a4.07 4.07 0 01-3.98 3.25.813.813 0 000 1.625H14.3a4.848 4.848 0 002.985-1.032l5.79-4.49a.746.746 0 01.578-.16.823.823 0 01.554.32c.13.164.187.37.162.58zM22.75 1.625H4.874c-.897 0-1.625.73-1.625 1.625v5.688a.813.813 0 001.625 0V6.419A4.075 4.075 0 008.042 3.25H19.58a4.075 4.075 0 003.168 3.167v4.146a.813.813 0 001.625 0V3.25c0-.895-.728-1.625-1.625-1.625zm-17.875 3.1V3.25H6.35a2.43 2.43 0 01-1.475 1.476zm17.874 0a2.431 2.431 0 01-1.475-1.475h1.475v1.476z" fill="#201D54"/><path d="M13.812 6.5a2.44 2.44 0 00-2.437 2.437 2.44 2.44 0 002.437 2.438 2.44 2.44 0 002.438-2.438A2.44 2.44 0 0013.812 6.5zm0 3.25A.814.814 0 0113 8.937a.813.813 0 011.625 0 .814.814 0 01-.813.813z" fill="#201D54"/></svg>
